packs/brands/golang.svg

<svg xmlns="http://www.w3.org/2000/svg" viewBox="0 0 640 512"><!--! Font Awesome Free 6.5.2 by @fontawesome - https://fontawesome.com License - https://fontawesome.com/license/free (Icons: CC BY 4.0, Fonts: SIL OFL 1.1, Code: MIT License) Copyright 2024 Fonticons, Inc.--><path d="M400.1 194.8c-10.9 2.8-19.9 4.3-29.1 7.6-7.3 1.9-14.7 3.9-23.2 6.1l-.6.1c-4.2 1.2-4.6 1.3-8.5-3.2-4.7-5.3-8.1-8.7-14.6-11.9-19.7-9.6-38.7-6.8-56.4 4.7-21.2 13.7-32.1 34-31.8 59.2.3 25 17.4 45.5 41.2 48.9 22 2.8 39.8-4.6 53.8-20.5 2.1-2.6 4-5.3 6.1-8.3.8-1 1.5-2.1 2.3-3.3h-60.1c-6.5 0-8.1-4-5.9-9.3 4-9.7 11.5-25.9 15.9-34 .9-1.8 3.1-5.8 6.9-5.8h101.1c4.5-13.4 11.8-26.9 21.6-39.7 22.7-29.9 49.3-45.5 87.2-52 31.8-5.6 61.7-2.5 88.9 15.9 24.6 16.8 39.8 39.6 43.9 69.5 5.3 42.1-6.9 76.3-36.7 105.6-19.7 20.9-44.9 34-73.9 39.9-5.6 1-11.1 1.5-16.5 2-2.9.2-5.7.5-8.5.8-28.3-.6-54.2-8.7-76-27.4-15.3-13.3-25.9-29.6-31.1-48.5-3.7 7.3-8 14.4-14 21.1-21.6 29.6-50.9 48-87.9 52.9-30.6 4.1-58.9-1.8-83.9-20.5-23-17.5-36.1-40.5-39.5-69.2-4.1-34 5.9-65.4 26.4-91.3 22.2-29 51.5-47.4 87.3-53.9 29.3-6.2 57.3-1.9 82.6 15.3 16.5 10.9 28.3 25.8 36.1 43.9 1.9 2.8.6 4.4-3.1 5.3m-351.8 5.6c-1.25 0-1.56-.6-.94-1.6l6.55-8.4c.62-.9 2.18-1.5 3.43-1.5H168.6c1.2 0 1.5.9.9 1.8l-5.3 8.1c-.6 1-2.2 1.9-3.1 1.9zM1.246 229.1c-1.246 0-1.558-.7-.934-1.6l6.543-8.4c.624-.9 2.182-1.6 3.425-1.6H152.4c1.2 0 1.8 1 1.5 1.9l-2.5 7.5c-.3 1.2-1.5 1.9-2.8 1.9zm74.474 26.8c-.62.9-.31 1.8.93 1.8l67.95.3c.9 0 2.2-.9 2.2-2.1l.6-7.5c0-1.3-.6-2.2-1.9-2.2H83.2c-1.25 0-2.49.9-3.12 1.9zm501.48-18c-.2-2.6-.3-4.8-.7-7-5.6-30.8-34-48.3-63.6-41.4-29 6.5-47.7 24.9-54.5 54.2-5.6 24.3 6.2 48.9 28.6 58.9 17.2 7.5 34.3 6.6 50.8-1.9 24.6-13.6 38-32.7 39.6-59.5-.1-1.2-.1-2.3-.2-3.3"/></svg>

<svg xmlns="http://www.w3.org/2000/svg" viewBox="0 0 640 512"><!--! Font Awesome Free 6.5.2 by @fontawesome - https://fontawesome.com License - https://fontawesome.com/license/free (Icons: CC BY 4.0, Fonts: SIL OFL 1.1, Code: MIT License) Copyright 2024 Fonticons, Inc. --><path d="M400.1 194.8C389.2 197.6 380.2 199.1 371 202.4C363.7 204.3 356.3 206.3 347.8 208.5L347.2 208.6C343 209.8 342.6 209.9 338.7 205.4C334 200.1 330.6 196.7 324.1 193.5C304.4 183.9 285.4 186.7 267.7 198.2C246.5 211.9 235.6 232.2 235.9 257.4C236.2 282.4 253.3 302.9 277.1 306.3C299.1 309.1 316.9 301.7 330.9 285.8C333 283.2 334.9 280.5 337 277.5V277.5L337 277.5C337.8 276.5 338.5 275.4 339.3 274.2H279.2C272.7 274.2 271.1 270.2 273.3 264.9C277.3 255.2 284.8 239 289.2 230.9C290.1 229.1 292.3 225.1 296.1 225.1H397.2C401.7 211.7 409 198.2 418.8 185.4C441.5 155.5 468.1 139.9 506 133.4C537.8 127.8 567.7 130.9 594.9 149.3C619.5 166.1 634.7 188.9 638.8 218.8C644.1 260.9 631.9 295.1 602.1 324.4C582.4 345.3 557.2 358.4 528.2 364.3C522.6 365.3 517.1 365.8 511.7 366.3C508.8 366.5 506 366.8 503.2 367.1C474.9 366.5 449 358.4 427.2 339.7C411.9 326.4 401.3 310.1 396.1 291.2C392.4 298.5 388.1 305.6 382.1 312.3C360.5 341.9 331.2 360.3 294.2 365.2C263.6 369.3 235.3 363.4 210.3 344.7C187.3 327.2 174.2 304.2 170.8 275.5C166.7 241.5 176.7 210.1 197.2 184.2C219.4 155.2 248.7 136.8 284.5 130.3C313.8 124.1 341.8 128.4 367.1 145.6C383.6 156.5 395.4 171.4 403.2 189.5C405.1 192.3 403.8 193.9 400.1 194.8zM48.3 200.4C47.05 200.4 46.74 199.8 47.36 198.8L53.91 190.4C54.53 189.5 56.09 188.9 57.34 188.9H168.6C169.8 188.9 170.1 189.8 169.5 190.7L164.2 198.8C163.6 199.8 162 200.7 161.1 200.7L48.3 200.4zM1.246 229.1C0 229.1-.3116 228.4 .3116 227.5L6.855 219.1C7.479 218.2 9.037 217.5 10.28 217.5H152.4C153.6 217.5 154.2 218.5 153.9 219.4L151.4 226.9C151.1 228.1 149.9 228.8 148.6 228.8L1.246 229.1zM75.72 255.9C75.1 256.8 75.41 257.7 76.65 257.7L144.6 258C145.5 258 146.8 257.1 146.8 255.9L147.4 248.4C147.4 247.1 146.8 246.2 145.5 246.2H83.2C81.95 246.2 80.71 247.1 80.08 248.1L75.72 255.9zM577.2 237.9C577 235.3 576.9 233.1 576.5 230.9C570.9 200.1 542.5 182.6 512.9 189.5C483.9 196 465.2 214.4 458.4 243.7C452.8 268 464.6 292.6 487 302.6C504.2 310.1 521.3 309.2 537.8 300.7C562.4 287.1 575.8 268 577.4 241.2C577.3 240 577.3 238.9 577.2 237.9z"/></svg>
